X:417
%%etbk:tnset id:124,pos:2,rep:2x,ant:
%%etbk:tnset id:258,pos:7,rep:2x,ant:
%%etbk:wsite http://www.thesession.org/tunes/display/13
%%etbk:pldat 2016-06-23T18:27,2016-06-22T16:20,2016-06-21T16:24,2016-06-18T16:16,2016-03-05T13:54,2016-02-27T15:07,2015-11-30T18:24,2015-10-06T15:49,2015-10-01T18:01,2015-06-26T17:50,2015-06-18T19:03,2015-03-04T18:02,2014-10-29T17:15,2014-10-28T15:23,2014-10-23T18:31,2014-10-20T17:58,2014-10-12T14:33,2014-10-03T15:14,2014-08-21T19:21,2014-08-18T19:20,2014-06-22T16:43,2014-06-11T16:52,2014-06-07T15:03,2014-03-06T19:32,2014-02-26T17:16,2014-01-22T15:22,2014-01-21T16:27,2014-01-20T18:05,2014-01-19T12:54,2014-01-18T14:53,2014-01-15T15:35,2014-01-14T19:21,2014-01-12T13:19,2014-01-07T15:25,2013-12-29T13:20,2013-10-30T15:56,2013-10-28T17:54,2013-10-26T16:58,2013-10-18T15:21,2013-10-13T16:18,2013-10-11T17:59,2013-09-12T17:39
T: Chief O'Neill's Favourite
Z: Piano Box Version by Martin Fleischmann
H: Created 2013-02-19 /  Last Modified 2013-02-19
M: 4/4
L: 1/8
R: hornpipe
K: Dmaj
!3!d!4!e|: "D"!3!fefg !5!af!4!ge | !3!f!1!d!5!e!3!c !4!d!2!B!1!A!4!G | !3!FEDE !3!F!1!GAB | "A"!4!=c!1!A!3!d!2!^c !1!A2 !3!d!4!e |
 "D"!3!f{g}ffg !5!af!4!ge | !3!(3fed !5!ec !4!d!2!B!1!A!4!G | !3!F2D!3!F "A"!1!G!3!BA!1!G |1 "D"!3!F{G}F!1!D2 D2!3!d!4!e:|2 "D"!3!F{G}F!1!D2 D2DE ||
|: "dm"!3!=F2{G}FE !3!F!4!G!2!AB | !4!=c!2!A!5!d!3!B !4!=cA!1!G!3!B | "D"!1!A!3!dde !5!f!3!d!4!ed | "A"!2!=c!1!A!3!d!2!^c !1!A2!3!d!4!e |
 "D"!3!f{g}ffg !5!af!4!ge | !3!(3fed !5!ec !4!d!2!B!1!A!4!G | !3!F2D!3!F "A"!1!G!3!BA!1!G |1 "D"!3!F{G}F!1!D2 D2DE :|2 "D"!3!F{G}F!1!D2 D2!3!d!4!e ||


